X:46
T:Miss Anns Hornpipe. JBu.46
T:Railway Hornpipe,aka. JBu.46, The
O:England,South Yorkshire
S:Joshua Burnett’s MS,c1835,S.Yorkshire
M:4/4
L:1/8
Q:1/2=90
R:.hornpipe
N:No time sig in MS
Z:vmp.R.Greig.2011
K:D
fe|dAFA DFAF|EGBG FAdc|Bggf fedc|edcB Agfe|
dAFA DFAF|EGBG FA dc|Bggf fedc|d2f2d2:|
|:cd|eAAA fAAA|gAAA fAAA|eAfA gAfA|eagf egfe|
dAFA DFAF|EGBG FAdc|Bggf fedc|d2f2d2:|

